src/assets/icons/remotes/mailru.svg

<svg width="24" height="24" viewBox="0 0 24 24" fill="currentColor" xmlns="http://www.w3.org/2000/svg">
    <path
        d="M11.6541 6.38827C13.1809 6.38827 14.6196 7.06512 15.674 8.12321V8.12634C15.674 7.61823 16.0158 7.23386 16.4883 7.23386H16.6083C17.3539 7.23386 17.5033 7.93697 17.5033 8.15884L17.5064 16.0555C17.4546 16.5729 18.0408 16.8404 18.3664 16.5079C19.632 15.2061 21.1488 9.80878 17.5783 6.68388C14.2484 3.7671 9.77917 4.24896 7.403 5.88641C4.87745 7.63135 3.26313 11.4856 4.8312 15.108C6.54365 19.0572 11.4391 20.2353 14.3528 19.0604C15.8277 18.4648 16.5077 20.4559 14.9746 21.1078C12.6641 22.0934 6.22491 21.9928 3.2175 16.7848C1.18569 13.2668 1.29319 7.07824 6.68427 3.8721C10.8048 1.4178 16.2415 2.09778 19.5189 5.51954C22.9438 9.10006 22.7456 15.7992 19.402 18.4035C17.8877 19.5878 15.639 18.436 15.6552 16.7104L15.6384 16.148C14.584 17.1923 13.1809 17.8048 11.6541 17.8048C8.63358 17.8048 5.97429 15.1449 5.97429 12.1275C5.97429 9.07756 8.63358 6.38952 11.6541 6.38952V6.38827ZM15.4534 11.9093C15.339 9.69879 13.6984 8.36758 11.716 8.36758H11.641C9.35606 8.36758 8.08672 10.1675 8.08672 12.2081C8.08672 14.4961 9.6198 15.9411 11.6316 15.9411C13.8772 15.9411 15.3515 14.298 15.459 12.3543L15.4534 11.9093Z" />
</svg>

<svg xmlns="http://www.w3.org/2000/svg" width="24" height="24" fill="currentColor" viewBox="0 0 24 24"><path d="M11.654 6.388c1.527 0 2.966.677 4.02 1.735v.003c0-.508.342-.892.814-.892h.12c.746 0 .895.703.895.925l.003 7.896c-.051.518.535.785.86.453 1.266-1.302 2.783-6.7-.788-9.824-3.33-2.917-7.799-2.435-10.175-.798-2.526 1.745-4.14 5.6-2.572 9.222 1.713 3.95 6.608 5.127 9.522 3.952 1.475-.595 2.155 1.396.622 2.048-2.31.985-8.75.885-11.757-4.323-2.032-3.518-1.925-9.707 3.466-12.913 4.12-2.454 9.557-1.774 12.835 1.648 3.425 3.58 3.227 10.28-.117 12.884-1.514 1.184-3.763.032-3.747-1.694l-.017-.562a5.63 5.63 0 0 1-3.984 1.657c-3.02 0-5.68-2.66-5.68-5.677 0-3.05 2.66-5.738 5.68-5.738zm3.8 5.521c-.115-2.21-1.756-3.541-3.738-3.541h-.075c-2.285 0-3.554 1.8-3.554 3.84 0 2.288 1.533 3.733 3.545 3.733 2.245 0 3.72-1.643 3.827-3.587z"/></svg>
